X:1
T:James Gibb editions
T:The foe behind, the deep before - Barnby
T:#
%%score [ ( 1 2 3 ) ( 4 5 ) ]
L:1/8
Q:1/4=132
M:3/4
K:F
V:1 treble nm="Midi_74"
V:2 treble 
V:3 treble 
V:4 bass nm="Midi_74"
V:5 bass 
V:1
"^John Mason Neale\n(1818-66)""^The foe behind, the deep before (II)""^Joseph Barnby\n(1838-96)" z2 z2"^Unison" A2 | %1
w: The|
 G4 A2 | [DF]4 G2 | A4 B2 | c4 A2 | d4 A2 | c4 F2 | B4 B2 | A4 A2 |[M:3/4] d4 c2 | (B2 A2) G2 | %11
w: foe be-|hind, the|deep be-|fore, Our|hosts have|dared and|past the|sea: And|Pha- raoh's|war- * riors|
 c4 B2 | A4 B2 | c4 d2 | B4 A2 | G4 G2 | F4"^Harmony"!ff! A2 | c4 c2 | f4 c2 | d4 d2 | c4 G2 | %21
w: strew the|shore, And|Is- rael's|ran- som'd|tribes are|free. Lift|up, lift|up your|voi- ces|now! The|
 c4 c2 | f4 c2 | d4 d2 | c4"^Unison" G2 | A4 =B2 | c4 c2 | d4 d2 | c4"^Harmony" G2 | A4 B2 | %30
w: whole wide|world re-|joi- ces|now The|Lord hath|tri- umph'd|glo- ~rious-|ly The|Lord shall|
 c4 c2 | d4 d2 | c6 ||"^Trebles only"!mf! d4 c2 | A4 B2 | d4 c2 | A4 B2 | A4 G2 | F4 G2 | A6 | %40
w: reign vic-|to- rious-|ly!|Hap- py|mor- row,|Turn- ing|sor- row|In- to|peace and|mirth!|
"^Harmony (Trebles & Tenors)" B4 A2 | (A2 ^F2) G2 | A4 G2 | (G2 E2) F2 | F6 | G6 | A6 || %47
w: Bond- age|end\- * ing,|Love de-|scend\- * ing|O'er|the|earth.|
"^Tenors only" A4- A2 | A6 | A6 | A6 | A4 G2 | F4 G2 | A6 |"^Harmony" A4 A2 | d4 A2 | B4 B2 | %57
w: ||||Watch His|earth- ly|pris'n:|Seals are|shat- ter'd,|Guards are|
 c4 d2 |!ff! f6 | e6 | f6 ||[M:4/4]"^Trebles only"!mf! F2 | c2 B2 A2 G2 | F3 G F2 F2 | %64
w: scat- ter'd;|Christ|is|ris'n;|No|long- er must the|mourn- ers weep, Nor|
 c2 B2 A2 G2 | F3 G F2 F2 |[M:4/4]"^dim." F2 F2 F2 E2 | E3 E D2 D2 | D3 D D2 D2 | D4 E4 | D8 || %71
w: call de- part- ed|Chris- tians dead ;~For|death is ha- llow'd|in- to sleep, And|ev- 'ry grave be-|comes a|bed.|
"^Harmony" A2 B2"^cresc." A4 | B2 c2 B4 | c2 d2 B2 c2 | d2 G2 A2 A2 | B2"^cresc." c2 d2 _e2 | %76
w: Now once more|E- den's door|O- pen stands to|mor- tal eyes; For|Christ hath risen, and|
 f6 c2 | d8 || A2 B2 A4 | B2 c2 B4 | c2 d2 B2 c2 | d2 G2 A2 A2 |"^cresc." B2 c2 d2 _e2 | f6 c2 | %84
w: man shall|rise.|Now at last,|Old things past,|Hope and joy and|peace be- gin: For|Christ hath won, and|man shall|
 d6 ||"^Trebles only""^dim." d2 | c2 A2 B2 c2 | A3 A B2 d2 | c2 A2 B2 c2 | A3 A B2 B2 | %90
w: win.|It|is not ex- ile,|rest on high; It|is not sad- ness,|peace from strife; To|
 A3 E E2 B2 | A3 E E2 E2 | F2 G2 A2 =B2 | c4 d4 | c8 ||"^Harmony"!f! c2 c2 d2 e2 | f4 c4 | %97
w: fall a- sleep is|not to die: To|dwell with Christ is|bet- ter|life.|Where our ban- ner|leads us|
 B2 AG A2 G2 | F8 || c2 c2 d2 e2 | f4 e4 | d2 A2 c2 =B2 | c8 ||!ff! c2 c2 B2 A2 | G4- ^F4 | %105
w: We may * safe- ly|go;|Where our Chief pre-|cedes us,|We may face the|foe.|His right arm is|o'er us,|
 G2 G2 A2"^I" A2 | B8 || d2 d2 c2 B2 | A4 G4 | c2 d2 G3 F | F8 || F4 F4 |] %112
w: He our Guide will|be:|Christ hath gone be-|fore us,|Chris- tians, fol- low|ye!|A- men.|
V:2
 z2 z2 [CF]2 | [CE]4 [CE]2 | A,4 D2 | [CF]6 | [CF]4 C2 | [FA]4 [DF]2 | [CE]4 C2 | %7
 [DG]2- [EG]2 [DG]2 | [^CE]4 [CE]2 |[M:3/4] [D^F]2- [DG]2 [DA]2 | [DG]4 [B,D]2 | %11
 [CG]2- [CF]2 [CE]2 | [CF]4 [DF]2 | [CF]4 F2 | (F2 E2) [CF]2 | [DF]4 [CE]2 | [A,C]4 F2 | E4 E2 | %18
 F4 F2 | (F2 G2) F2 | E4 E2 | F4 E2 | (F2 G2) A2 | (A2 G2) F2 | (E2 F2) C2 | [CF]4 [DF]2 | %26
 [CE]4 [FA]2 | [FA]4 [F=B]2 | (E2 F2) G2 | F4 F2 | F4 _E2 | D4 E2 | F6 || [DB]4 [_EA]2 | %34
 [DF]4 [DG]2 | [DB]4 [_EA]2 | ^F4 [DG]2 | [A,E]4 [A,^C]2 | [A,D]4 D2 | [^CE]6 | D4 D2 | D4 D2 | %42
 E4 E2 | C4 C2 | D6 | D6 | C6 || z4 G2 | F2 E2 D2 | ^C2 D2 =B,2 | ^C2 A,2 D2 | D6 | D6 | ^C6 | %54
 D4 ^C2 | D4 D2 | D4 D2 | F4 F2 | A6 | B6 | A6 ||[M:4/4] x2 | _E8- | !courtesy!_E6 D2 | _E4 E4 | %65
 C2 [B,_E]2- [CE]2 [A,E]2 |[M:4/4] [B,D]4 [B,D]4 | [A,^C]4 A,2 [A,=C]2 | [A,C]4 [G,B,]2 B,2 | %69
 A,4 ^C4 | D8 || ^F2 G2 F4 | G2 G2 G4 | A2 B2 G2 G2 | G2 G2 ^F2 F2 | G2 A2 B2 B2 | B4 A4 | B8 || %78
 ^F2 G2 F4 | G2 G2 G4 | A2 B2 G2 G2 | G2 G2 ^F2 F2 | G2 A2 B2 B2 | B4 A4 | B6 || [DB]2 | %86
 [_EA]2 [D^F]2 [DG]2 [CG]2 | [CF]3 [CF] [DF]2 [DB]2 | [_EA]2 [D^F]2 [DG]2 [EG]2 | %89
 [D^F]3 [DF] [DG]2 D2 | ^C6 D2 | ^C6 C2 | D2 E2 F2 F2 | E4 F4 | E8 || F2 B2 A2 G2 | F4 F4 | %97
 F2 F2 F2 E2 | F8 || G2 G2 A2 G2 | F4 G4 | A2 F2 E2 F2 | E8 || c2 c2 B2 A2 | G4 ^F4 | %105
 G2 G2 G2 ^F2 | G8 || d2 d2 c2 B2 | A4 E4 | F2 F2 F2 E2 | F8 || D4 C4 |] %112
V:3
 x6 | x6 | x6 | x6 | x6 | x6 | x6 | x6 | x6 |[M:3/4] x6 | x6 | x6 | x6 | x6 | x6 | x6 | x6 | x6 | %18
 x6 | x6 | x6 | x6 | x6 | x6 | x6 | x6 | x6 | x6 | x6 | x6 | x6 | x6 | x6 || x6 | x6 | x6 | x6 | %37
 x6 | x6 | x6 | x6 | x6 | x6 | x6 | x6 | x6 | x6 || x6 | x6 | x6 | x6 | x6 | x6 | x6 | x6 | x6 | %56
 x6 | x6 | F6 | G6 | F6 ||[M:4/4] x2 | x8 | x8 | x8 | x8 |[M:4/4] x8 | x8 | x8 | x8 | x8 || x8 | %72
 x8 | x8 | x8 | x8 | x8 | x8 || x8 | x8 | x8 | x8 | x8 | x8 | x6 || x2 | x8 | x8 | x8 | x8 | x8 | %91
 x8 | x8 | x8 | x8 || x8 | x8 | x8 | x8 || x8 | x8 | x8 | x8 || x8 | x8 | x8 | x8 || x8 | x4 C4 | %109
 x8 | x8 || x8 |] %112
V:4
 z2 z2 F,,2 | C,4 A,,2 | (D,2 C,2) B,,2 | F,4 G,2 | A,4 F,2 | D,4 F,2 | A,4 A,2 | G,4 E,2 | %8
w: ||||||||
 A,4 A,2 |[M:3/4] (D,2 E,2) ^F,2 | G,4 F,2 | (E,2 D,2) C,2 | F,4 D,2 | A,4 B,2 | B,4 F,2 | %15
w: |||||||
 (B,,2 G,,2) C,2 | F,,4!ff! C2 | B,4 B,2 | C4 A,2 | B,4 B,2 | C4 C2 | C4 B,2 | (A,2 B,2) C2 | %23
w: ||||||||
 (C2 B,2) A,2 | G,4 E,2 | F,4 D,2 | A,4 F,2 | D,4 G,2 | (C,2 D,2) C2 | C4 D2 | C4 A,2 | %31
w: ||||||||
 (B,2 F,2) G,2 | A,6 || B,,4 C,2 | D,4 G,2 | B,,4 C,2 | D,4 G,2 | ^C,4 E,2 | D,4 B,,2 | A,,6 | %40
w: |||||||||
 D4 C2 | (C2 A,2) B,2 | C4 B,2 | (B,2 G,2) A,2 | B,6 | B,6 | A,6 ||!f! A,4 A,2 | A,4 A,2 | %49
w: |||||||Seals as-|sur- ing,|
 A,4 A,2 | A,4 A,2 | A,4 G,2 | F,4 G,2 | A,6 | ^F,4 G,2 | A,4 ^F,2 | G,4 G,2 | A,4 D2 |!ff! C6 | %59
w: Guards se-|cur- ing,|||||||||
 C6 | C6 ||[M:4/4] z2 | A,2 B,2 C2 B,2 | C2 B,2 C2 B,2 | A,2 B,2 C4 | A,,2 G,,2 A,,2 F,,2 | %66
w: |||||||
[M:4/4] F,4 G,,2 G,,2 | A,,2 G,,2 ^F,,2 F,,2 | z6 D,E, | ^F,4 G,4 | ^F,8 || D2 D2 D4 | D2 _E2 D4 | %73
w: |||||||
 F2 F2 _E2 E2 | B,2 C2 A,2 D2 | D3 _E D2 CB, | (C2 D2) _E4 | D8 || D2 D2 D4 | D2 _E2 D4 | %80
w: |||||||
 F2 F2 _E2 E2 | B,2 C2 A,2 D2 | D2 F_E D2 CB, | (C2 D2) _E4 | D6 || !courtesy!_B,,2 | %86
w: ||||||
 C,2 D,2 G,2 _E,2 | F,4 !courtesy!_B,2 B,,2 | C,2 D,2 G,2 C,2 | D,3 D, G,2 [E,G,]2 | %90
w: ||||
 [A,,A,]6 [E,G,]2 | [A,,A,]6 [A,,A,]2 | [D,A,]2 [C,C]2 [F,C]2 [D,D]2 | [G,C]4 [G,=B,]4 | [C,C]8 || %95
w: |||||
!f! A,2 D2 C2 B,2 | A,4 _E4 | D2 CB, C2 B,2 | A,8 || C2 C2 C2 C2 | C2 =B,2 C4 | A,2 D2 C2 D2 | %102
w: |||||||
 C8 ||!ff! C2 C2 B,2 A,2 | G,4 ^F,4 | G,2 B,2 _E2 D2 | D8 || D2 D2 C2 B,2 | A,4 G,4 | %109
w: |||||||
 C2 B,A, G,A, B,2 | A,8 || B,4 A,4 |] %112
w: |||
V:5
 x6 | x6 | x6 | x6 | x6 | x6 | x6 | x6 | x6 |[M:3/4] x6 | x2 x2 x2 | x2 x2 x2 | x2 x2 x2 | %13
 x2 x2 x2 | (G,2 C,2) x2 | x2 x2 x2 | x2 x2 F,2 | G,4 G,2 | A,4 F,2 | B,4 G,2 | C4 B,2 | A,4 G,2 | %22
 F,4 F,2 | B,,4 B,,2 | (C,2 D,2) x2 | x2 x2 x2 | x2 x2 x2 | x2 x2 x2 | x2 x2 E,2 | F,4 D,2 | %30
 A,,4 F,,2 | B,,4 B,,2 | F,,6 || x2 x2 x2 | x2 x2 x2 | x2 x2 x2 | x2 x2 x2 | x2 x2 x2 | x2 x2 x2 | %39
 x2 x2 x2 | D,4 D,2 | G,4 G,2 | C,4 C,2 | F,4 F,2 | B,,6 | B,,6 | F,,6 || z4 G,2 | F,2 E,2 D,2 | %49
 ^C,2 D,2 =B,,2 | ^C,2 A,,2 D,2 | B,,6 | B,,6 | A,,6 | D,4 E,2 | ^F,4 D,2 | G,4 G,2 | F,4 B,2 | %58
 C6 | C6 | F,6 ||[M:4/4] z2 | F,2 G,2 A,2 B,2 | A,2 G,2 A,2 B,2 | F,6 B,,2 | x2 x2 x2 x2 | %66
[M:4/4] B,,2 A,,2 x2 x2 | x2 x2 x2 z2 | G,,8 | A,,4 A,,4 | D,8 || D,2 G,2 D,4 | G,2 C,2 G,4 | %73
 F,2 B,,2 _E,2 C,2 | G,2 _E,2 D,2 D,2 | G,2 F,2 B,2 G,2 | F,4 F,4 | B,8 || D,2 G,2 D,4 | %79
 G,2 C,2 G,4 | F,2 B,,2 _E,2 C,2 | G,2 _E,2 D,2 D,2 | G,2 F,2 B,2 G,2 | F,4 F,4 | B,6 || x2 | x8 | %87
 x8 | x8 | x8 | x8 | x8 | x8 | x8 | x8 || F,2 F,2 C,2 C,2 | D,4 A,,4 | B,,2 C,D, C,2 C,2 | F,8 || %99
 E,2 E,2 F,2 E,2 | D,4 E,4 | F,2 D,2 G,2 G,2 | C,8 || C2 C2 B,2 A,2- | G,4 ^F,4 | %105
 G,2 _E,2 C,2 D,2 | G,8 || D2 D2 C2 B,2 | A,4 B,,4- | A,,2 B,,2 C,2 C,2 | [F,,F,]8 || B,,4 F,4 |] %112

